lib/logo_tmp/nrk-logo-nrk-super-with-bg.svg

<svg width="74" height="24" viewBox="0 0 74 24" fill="none" xmlns="http://www.w3.org/2000/svg">
<g clip-path="url(#clip0_4765_1706)">
<rect x="0.566406" width="72.5781" height="24" rx="12" fill="#00B3C7"/>
</g>
<path d="M9.99854 18V6.00109H13.9357V18H9.99854ZM19.2923 7.91078L21.5566 18H17.2477L14.544 6.00109H16.9607C17.5149 5.9939 18.0526 6.18925 18.473 6.55039C18.8942 6.89638 19.1835 7.3767 19.2923 7.91078ZM22.1481 18V6.00109H26.0852V18H22.1481ZM29.059 10.5641C28.6347 10.5682 28.2173 10.4572 27.8511 10.243C27.4898 10.0341 27.1896 9.73396 26.9808 9.3726C26.7663 9.00633 26.6553 8.58876 26.6595 8.16432C26.6546 7.74246 26.7658 7.32738 26.9808 6.96443C27.1919 6.60699 27.4916 6.31009 27.8511 6.10252C28.2174 5.8885 28.6348 5.77751 29.059 5.78138C29.4807 5.77684 29.8957 5.88793 30.2588 6.10252C30.6146 6.31191 30.9112 6.60856 31.1206 6.96443C31.3354 7.32748 31.4465 7.74249 31.4419 8.16432C31.4458 8.58873 31.3348 9.00623 31.1206 9.3726C30.9134 9.73238 30.6164 10.0323 30.2588 10.243C29.8956 10.458 29.481 10.5691 29.059 10.5641ZM32.0502 18V6.00109H35.9877V18H32.0502ZM40.9723 12.5582C40.9833 12.5699 41.0678 12.7079 41.2257 12.9723C41.3836 13.2367 41.5892 13.5747 41.8425 13.9863C42.0959 14.3977 42.3634 14.8343 42.6449 15.296C42.9263 15.7577 43.1911 16.1944 43.4394 16.6058C43.6866 17.0172 43.9683 17.4819 44.2842 18H39.9584C39.6878 17.5606 39.4427 17.1635 39.223 16.8086C39.0033 16.4537 38.7698 16.0706 38.5224 15.6594C38.2743 15.2485 38.0291 14.8485 37.7867 14.4595C37.5443 14.0704 37.336 13.7296 37.1618 13.4371C36.9868 13.1443 36.8656 12.9471 36.7982 12.8455C36.6311 12.5934 36.5322 12.3023 36.5112 12.0005C36.528 11.7109 36.6211 11.431 36.7813 11.1891C36.8489 11.0764 36.9728 10.8764 37.1531 10.5891C37.3333 10.3018 37.5445 9.96105 37.7867 9.56672C38.0289 9.17239 38.2742 8.7696 38.5224 8.35837C38.7706 7.94715 39.0041 7.56124 39.223 7.20071C39.4431 6.84055 39.6882 6.44059 39.9584 6.00081H44.2842L40.9382 11.4595C40.8346 11.6216 40.7763 11.8083 40.7692 12.0005C40.7803 12.2023 40.8514 12.3963 40.9723 12.5582Z" fill="white"/>
<path d="M59.2941 3.6879C60.3495 4.13553 61.3087 4.78255 62.119 5.5935C62.9301 6.40392 63.5771 7.36321 64.0247 8.41877C64.4869 9.50855 64.721 10.6814 64.7126 11.8652C64.72 13.0436 64.4858 14.2111 64.0247 15.2955C63.577 16.351 62.9299 17.3103 62.119 18.1208C61.3086 18.9316 60.3494 19.5787 59.2941 20.0264C58.2041 20.4884 57.0312 20.7224 55.8474 20.7141C54.6636 20.7225 53.4906 20.4885 52.4007 20.0264C51.347 19.5799 50.3902 18.9327 49.5838 18.1208C48.7772 17.3085 48.1333 16.3496 47.6867 15.2955C47.2254 14.2111 46.9913 13.0436 46.9988 11.8652C46.9902 10.6814 47.2244 9.5085 47.6867 8.41877C48.1331 7.36466 48.777 6.40567 49.5838 5.5935C50.3902 4.78149 51.347 4.13425 52.4007 3.6879C53.4906 3.22572 54.6636 2.99169 55.8474 3.00023C57.0312 2.99179 58.2041 3.22582 59.2941 3.6879ZM58.6312 18.4108C59.4783 18.0559 60.249 17.541 60.9011 16.8943C61.5531 16.2481 62.0712 15.4795 62.4256 14.6327C62.7932 13.7567 62.9792 12.8152 62.9724 11.8652C62.9791 10.9152 62.7931 9.97385 62.4256 9.09789C62.0698 8.24934 61.552 7.47832 60.9011 6.828C60.2496 6.17639 59.479 5.65595 58.6312 5.29496C57.751 4.92141 56.8035 4.73256 55.8474 4.74012C54.8967 4.73359 53.9548 4.92244 53.0801 5.29496C52.2321 5.65587 51.4614 6.17632 50.8097 6.828C50.1581 7.4795 49.6378 8.25009 49.2769 9.09789C48.9044 9.97256 48.7155 10.9145 48.7221 11.8652C48.7154 12.8159 48.9043 13.758 49.2769 14.6327C49.6364 15.4788 50.157 16.2469 50.8097 16.8943C51.4619 17.5411 52.2328 18.056 53.0801 18.4108C53.9561 18.7782 54.8975 18.9642 55.8474 18.9576C56.8028 18.9653 57.7498 18.7793 58.6312 18.4108ZM51.9779 12.8597C51.8528 12.7365 51.7539 12.5894 51.687 12.4271C51.6202 12.2648 51.5867 12.0907 51.5888 11.9151C51.5845 11.7344 51.6168 11.5546 51.6836 11.3866C51.7505 11.2186 51.8506 11.0659 51.9779 10.9375C52.1005 10.8088 52.2485 10.707 52.4125 10.6385C52.5765 10.57 52.753 10.5364 52.9307 10.5398C53.1134 10.5363 53.2948 10.5697 53.4643 10.638C53.6337 10.7064 53.7876 10.8082 53.9167 10.9375C54.0484 11.0634 54.1525 11.2153 54.2225 11.3836C54.2924 11.5519 54.3266 11.7329 54.3229 11.9151C54.3243 12.0921 54.2889 12.2675 54.2189 12.4301C54.149 12.5926 54.0461 12.7389 53.9167 12.8597C53.7876 12.9889 53.6337 13.0908 53.4643 13.1591C53.2948 13.2274 53.1134 13.2609 52.9307 13.2573C52.753 13.2607 52.5765 13.2271 52.4125 13.1586C52.2485 13.0902 52.1005 12.9884 51.9779 12.8597ZM58.7138 9.95982C58.7249 9.9264 58.7472 9.9264 58.7804 9.95982L59.1781 11.0369C59.185 11.0664 59.2021 11.0925 59.2263 11.1108C59.2505 11.129 59.2804 11.1381 59.3106 11.1366L60.4869 11.1695C60.5089 11.1695 60.52 11.178 60.52 11.1946C60.5167 11.2174 60.5049 11.2382 60.4869 11.2526L59.6418 11.9817C59.625 11.9865 59.6094 11.9947 59.596 12.0058C59.5826 12.017 59.5717 12.0307 59.5639 12.0463C59.5561 12.0619 59.5516 12.0789 59.5508 12.0963C59.5499 12.1137 59.5527 12.1311 59.5589 12.1474L59.8575 13.2245C59.8575 13.2797 59.8406 13.3073 59.8075 13.3073L58.8298 12.6611C58.7656 12.6384 58.6955 12.6384 58.6312 12.6611L57.703 13.3073C57.6588 13.3073 57.6423 13.2797 57.6536 13.2245L57.9518 12.1474C57.9546 12.1148 57.9483 12.0822 57.9337 12.0529C57.919 12.0237 57.8967 11.9991 57.869 11.9817L56.991 11.2526C56.981 11.2348 56.9754 11.215 56.9745 11.1946C56.9745 11.178 56.9797 11.1695 56.991 11.1695L58.1673 11.1366C58.1998 11.14 58.2326 11.1318 58.2598 11.1136C58.287 11.0954 58.307 11.0683 58.3164 11.0369L58.7138 9.95982Z" fill="white"/>
<defs>
<clipPath id="clip0_4765_1706">
<rect width="74" height="24" fill="white"/>
</clipPath>
</defs>
</svg>

<svg xmlns="http://www.w3.org/2000/svg" viewBox="0 0 74 24"><g clip-path="url(#a)"><rect width="72.578" height="24" x=".566" fill="#00B3C7" rx="12"/></g><path fill="#fff" d="M9.999 18V6.001h3.937V18H9.999Zm9.293-10.09L21.557 18h-4.31L14.545 6.001h2.417a2.276 2.276 0 0 1 1.512.55c.421.345.71.826.82 1.36ZM22.148 18V6.001h3.937V18h-3.937Zm6.911-7.436a2.382 2.382 0 0 1-2.4-2.4 2.302 2.302 0 0 1 .322-1.2 2.41 2.41 0 0 1 3.278-.861c.356.209.652.506.862.861.214.363.326.778.32 1.2a2.401 2.401 0 0 1-1.183 2.079 2.3 2.3 0 0 1-1.199.321ZM32.05 18V6.001h3.938V18H32.05Zm8.922-5.442c.011.012.096.15.254.414.158.265.363.603.617 1.014a339.194 339.194 0 0 1 1.596 2.62L44.284 18h-4.326c-.27-.44-.515-.837-.735-1.191-.22-.355-.453-.738-.7-1.15-.249-.41-.494-.81-.736-1.2-.243-.389-.451-.73-.625-1.022-.175-.293-.296-.49-.364-.591a1.75 1.75 0 0 1-.287-.845c.017-.29.11-.57.27-.812.068-.113.192-.313.372-.6s.392-.628.634-1.022c.242-.395.487-.797.735-1.209l.701-1.157.735-1.2h4.326l-3.346 5.458a1.078 1.078 0 0 0-.169.542c.011.201.082.395.203.557ZM59.294 3.688a8.914 8.914 0 0 1 2.825 1.905 8.912 8.912 0 0 1 1.906 2.826 8.669 8.669 0 0 1 .688 3.446 8.628 8.628 0 0 1-.688 3.43 8.919 8.919 0 0 1-4.73 4.731 8.676 8.676 0 0 1-3.448.688 8.672 8.672 0 0 1-3.446-.688 8.82 8.82 0 0 1-2.817-1.905 8.983 8.983 0 0 1-1.897-2.825 8.623 8.623 0 0 1-.688-3.43 8.664 8.664 0 0 1 .688-3.447 8.975 8.975 0 0 1 1.897-2.826A8.817 8.817 0 0 1 52.4 3.688 8.668 8.668 0 0 1 55.847 3a8.672 8.672 0 0 1 3.447.688Zm-.663 14.723a7.144 7.144 0 0 0 2.27-1.517 7.022 7.022 0 0 0 2.071-5.03 7.025 7.025 0 0 0-.546-2.766 7.077 7.077 0 0 0-1.525-2.27 7.197 7.197 0 0 0-2.27-1.533 6.984 6.984 0 0 0-2.784-.555 6.94 6.94 0 0 0-2.767.555 7.196 7.196 0 0 0-3.803 3.803 6.94 6.94 0 0 0-.555 2.767c-.007.95.182 1.893.555 2.768.36.846.88 1.614 1.533 2.261a7.141 7.141 0 0 0 2.27 1.517 7.029 7.029 0 0 0 2.767.547 7.07 7.07 0 0 0 2.784-.547Zm-6.653-5.551a1.305 1.305 0 0 1-.39-.945 1.344 1.344 0 0 1 .39-.977 1.283 1.283 0 0 1 .953-.398 1.358 1.358 0 0 1 .986.398 1.316 1.316 0 0 1 .406.977 1.277 1.277 0 0 1-.406.945 1.357 1.357 0 0 1-.986.397 1.281 1.281 0 0 1-.953-.397Zm6.736-2.9c.01-.034.033-.034.066 0l.398 1.077a.13.13 0 0 0 .133.1l1.176.032c.022 0 .033.009.033.026a.091.091 0 0 1-.033.058l-.845.729a.126.126 0 0 0-.083.165l.299 1.078c0 .055-.017.082-.05.082l-.978-.646a.298.298 0 0 0-.199 0l-.928.646c-.044 0-.06-.027-.05-.082l.299-1.078a.178.178 0 0 0-.083-.165l-.878-.73a.13.13 0 0 1-.017-.057c0-.017.006-.026.017-.026l1.176-.032a.14.14 0 0 0 .15-.1l.397-1.077Z"/><defs><clipPath id="a"><path fill="#fff" d="M0 0h74v24H0z"/></clipPath></defs></svg>
